src/static/svg-icon.svg

<?xml version="1.0" encoding="UTF-8" standalone="no"?>
<svg
   id="svg"
   width="400"
   height="424.13793103448273"
   viewBox="0, 0, 400,424.13793103448273"
   version="1.1"
   sodipodi:docname="svg-icon.svg"
   inkscape:version="1.1 (c68e22c387, 2021-05-23)"
   xmlns:inkscape="http://www.inkscape.org/namespaces/inkscape"
   xmlns:sodipodi="http://sodipodi.sourceforge.net/DTD/sodipodi-0.dtd"
   xmlns="http://www.w3.org/2000/svg"
   xmlns:svg="http://www.w3.org/2000/svg">
  <defs
     id="defs7" />
  <sodipodi:namedview
     id="namedview5"
     pagecolor="#ffffff"
     bordercolor="#666666"
     borderopacity="1.0"
     inkscape:pageshadow="2"
     inkscape:pageopacity="0.0"
     inkscape:pagecheckerboard="0"
     showgrid="true"
     inkscape:zoom="1.7753658"
     inkscape:cx="70.689657"
     inkscape:cy="190.66493"
     inkscape:window-width="1920"
     inkscape:window-height="1137"
     inkscape:window-x="-8"
     inkscape:window-y="-8"
     inkscape:window-maximized="1"
     inkscape:current-layer="svgg">
    <inkscape:grid
       type="xygrid"
       id="grid178" />
  </sodipodi:namedview>
  <g
     id="svgg">
    <path
       id="path0"
       d="M 15.627,0.517 C 8.329,2.107 2.426,7.804 0.542,15.077 -0.143,17.721 -0.304,405.393 0.378,408.69 c 1.402,6.771 7.535,13.15 14.327,14.902 3.184,0.821 306.785,0.839 309.936,0.018 6.403,-1.668 12.224,-7.466 14.184,-14.127 0.551,-1.874 0.621,-4.423 0.74,-26.965 l 0.131,-24.895 19.376,-0.127 c 17.311,-0.113 19.596,-0.192 21.433,-0.738 8.821,-2.622 15.546,-8.962 18.408,-17.352 l 0.915,-2.682 v -59.655 -59.655 l -0.94,-2.759 c -2.446,-7.182 -8.26,-13.363 -15.172,-16.13 -4.694,-1.88 -5.916,-1.973 -25.77,-1.973 h -18.291 v -41.845 c 0,-44.01 0.037,-62.939 -1.559,-65.318 C 337.143,87.967 252.545,2.535 251.526,1.969 251.114,1.739 250.253,1.241 249.612,0.862 248.104,-0.032 19.687,-0.368 15.627,0.517 m 174.807,64.742 c 0.109,38.539 0.113,38.718 0.86,41.373 3.349,11.902 29.294,37.589 42.327,41.356 l 2.758,0.798 38.362,0.098 18.362,0.099 v 13.784 33.785 l -93.534,0.002 c -76.842,0.002 -114.248,0.119 -115.742,0.361 -9.04,1.467 -16.829,7.695 -20.266,16.203 -1.932,4.782 -1.856,1.993 -1.757,65.078 l 0.093,58.183 0.94,2.759 c 2.934,8.61 9.303,14.711 18.259,17.492 l 2.525,0.784 114.741,0.09 94.741,0.09 c -0.103,8.406 -0.0839,15.40163 -0.11623,20.08001 0.65128,0.009 -123.62077,-0.088 -123.62077,-0.088 H 47.259 l -0.527,-1.019 C 45.814013,374.79199 46.116,48.294 47.036,47.278 l 0.657,-0.726 h 71.316 71.316 l 0.109,18.707 m 84.14355,39.7586 c -37.236,0.1 -34.45871,0.79257 -37.36871,-2.11743 -2.92,-2.919996 -2.566,-0.58035 -2.32755,-38.180598 0,0 -0.007,-17.784318 0.11871,-18.297124 C 293.21626,104.99572 268.90663,80.749144 293,105 M 146.374,234.153 c 16.04,1.521 24.191,7.801 26.86,20.694 0.289,1.398 0.456,2.612 0.371,2.698 -0.145,0.145 -19.204,1.365 -21.912,1.403 -1.22,0.017 -1.245,-0.011 -1.653,-1.835 -1.157,-5.171 -4.973,-8.146 -10.812,-8.43 -6.448,-0.313 -9.975,1.927 -9.975,6.336 0,3.198 2.135,4.645 9.379,6.361 17.205,4.075 23.296,6.227 28.782,10.169 14.072,10.114 11.148,32.5 -5.36,41.026 -6.411,3.312 -13.098,4.496 -23.778,4.213 -18.435,-0.488 -27.663,-5.471 -32.752,-17.685 -1.051,-2.523 -2.697,-9.286 -2.345,-9.638 0.214,-0.214 23.029,-1.648 23.218,-1.459 0.084,0.084 0.464,1.369 0.844,2.854 2.055,8.035 8.93,12.007 17.65,10.197 7.031,-1.46 9.707,-8.611 4.97,-13.287 -2.185,-2.158 -4.162,-2.939 -13.482,-5.332 -21.533,-5.527 -29.383,-11.747 -30.061,-23.817 -0.935,-16.632 15.677,-26.78 40.056,-24.468 m 180.004,0.384 c 12.954,1.511 21.131,8.023 25.369,20.204 0.359,1.033 0.48,1.811 0.282,1.811 -0.192,0 -5.559,0.934 -11.928,2.076 -6.369,1.143 -11.602,2.035 -11.63,1.983 -0.027,-0.051 -0.421,-0.911 -0.874,-1.91 -4.424,-9.753 -21.353,-9.963 -27.684,-0.343 -4.559,6.926 -5.248,23.469 -1.327,31.849 4.665,9.968 17.18,12.292 30.399,5.645 l 2.739,-1.377 v -3.962 -3.961 h -8.276 -8.276 V 278.276 270 h 19.142 19.141 l -0.09,17.118 -0.089,17.118 -3.448,2.187 c -9.768,6.194 -17.606,9.095 -27.48,10.169 -32.123,3.495 -50.901,-11.675 -51.059,-41.247 -0.161,-29.946 20.024,-44.898 55.089,-40.808 m -118.152,2.791 c 3.878,12.522 17.436,55.374 17.639,55.75 0.171,0.318 0.7,-0.909 1.488,-3.448 0.673,-2.167 4.731,-15.262 9.019,-29.099 4.287,-13.837 7.843,-25.205 7.9,-25.263 0.058,-0.057 5.689,-0.064 12.515,-0.014 l 12.411,0.091 -14.236,38.103 c -7.829,20.957 -14.563,38.996 -14.962,40.086 l -0.727,1.983 H 225.752 212.231 L 197.428,276.466 C 189.286,254.987 182.42,236.909 182.17,236.293 l -0.455,-1.121 h 12.922 12.921 l 0.668,2.156"
       fill="#000000"
       fill-rule="evenodd"
       sodipodi:nodetypes="ccccccccccccccccscsccccccccccccccccccsccccccsccccccssccccccccscccccssccccccccscccccccccccccccccccccccccccccccccsscccc" />
  </g>
</svg>
<!--Icon taken from www.uxwing.com and edited in Inkscape-->

<svg id="svg" xmlns="http://www.w3.org/2000/svg" xmlns:xlink="http://www.w3.org/1999/xlink" width="400" height="424.13793103448273" viewBox="0, 0, 400,424.13793103448273"><g id="svgg"><path id="path0" stroke="black" stroke-width="5px" d="M15.627 0.517 C 8.329 2.107,2.426 7.804,0.542 15.077 C -0.143 17.721,-0.304 405.393,0.378 408.690 C 1.780 415.461,7.913 421.840,14.705 423.592 C 17.889 424.413,321.490 424.431,324.641 423.610 C 331.044 421.942,336.865 416.144,338.825 409.483 C 339.376 407.609,339.446 405.060,339.565 382.518 L 339.696 357.623 359.072 357.496 C 376.383 357.383,378.668 357.304,380.505 356.758 C 389.326 354.136,396.051 347.796,398.913 339.406 L 399.828 336.724 399.828 277.069 L 399.828 217.414 398.888 214.655 C 396.442 207.473,390.628 201.292,383.716 198.525 C 379.022 196.645,377.800 196.552,357.946 196.552 L 339.655 196.552 339.655 154.707 C 339.655 110.697,339.692 111.768,338.096 109.389 C 337.143 107.967,232.545 2.535,231.526 1.969 C 231.114 1.739,230.253 1.241,229.612 0.862 C 228.104 -0.032,19.687 -0.368,15.627 0.517 M210.434 65.259 C 210.543 103.798,210.547 103.977,211.294 106.632 C 214.643 118.534,220.588 124.221,233.621 127.988 L 236.379 128.786 274.741 128.884 L 313.103 128.983 313.103 162.767 L 313.103 196.552 199.569 196.554 C 122.727 196.556,85.321 196.673,83.827 196.915 C 74.787 198.382,66.998 204.610,63.561 213.118 C 61.629 217.900,61.705 215.111,61.804 278.196 L 61.897 336.379 62.837 339.138 C 65.771 347.748,72.140 353.849,81.096 356.630 L 83.621 357.414 198.362 357.504 L 313.103 357.594 313.103 376.710 L 313.103 395.827 312.288 396.706 L 311.473 397.586 169.366 397.586 L 27.259 397.586 26.732 396.567 C 25.814 394.792,26.116 28.294,27.036 27.278 L 27.693 26.552 119.009 26.552 L 210.325 26.552 210.434 65.259 M275.087 105.433 C 237.851 105.533,240.143 105.693,237.233 102.783 C 234.313 99.863,234.483 102.221,234.483 64.620 L 234.483 31.431 271.199 68.388 L 307.916 105.345 275.087 105.433 M146.374 234.153 C 162.414 235.674,170.565 241.954,173.234 254.847 C 173.523 256.245,173.690 257.459,173.605 257.545 C 173.460 257.690,154.401 258.910,151.693 258.948 C 150.473 258.965,150.448 258.937,150.040 257.113 C 148.883 251.942,145.067 248.967,139.228 248.683 C 132.780 248.370,129.253 250.610,129.253 255.019 C 129.253 258.217,131.388 259.664,138.632 261.380 C 155.837 265.455,161.928 267.607,167.414 271.549 C 181.486 281.663,178.562 304.049,162.054 312.575 C 155.643 315.887,148.956 317.071,138.276 316.788 C 119.841 316.300,110.613 311.317,105.524 299.103 C 104.473 296.580,102.827 289.817,103.179 289.465 C 103.393 289.251,126.208 287.817,126.397 288.006 C 126.481 288.090,126.861 289.375,127.241 290.860 C 129.296 298.895,136.171 302.867,144.891 301.057 C 151.922 299.597,154.598 292.446,149.861 287.770 C 147.676 285.612,145.699 284.831,136.379 282.438 C 114.846 276.911,106.996 270.691,106.318 258.621 C 105.383 241.989,121.995 231.841,146.374 234.153 M326.378 234.537 C 339.332 236.048,347.509 242.560,351.747 254.741 C 352.106 255.774,352.227 256.552,352.029 256.552 C 351.837 256.552,346.470 257.486,340.101 258.628 C 333.732 259.771,328.499 260.663,328.471 260.611 C 328.444 260.560,328.050 259.700,327.597 258.701 C 323.173 248.948,306.244 248.738,299.913 258.358 C 295.354 265.284,294.665 281.827,298.586 290.207 C 303.251 300.175,315.766 302.499,328.985 295.852 L 331.724 294.475 331.724 290.513 L 331.724 286.552 323.448 286.552 L 315.172 286.552 315.172 278.276 L 315.172 270.000 334.314 270.000 L 353.455 270.000 353.365 287.118 L 353.276 304.236 349.828 306.423 C 340.060 312.617,332.222 315.518,322.348 316.592 C 290.225 320.087,271.447 304.917,271.289 275.345 C 271.128 245.399,291.313 230.447,326.378 234.537 M208.226 237.328 C 212.104 249.850,225.662 292.702,225.865 293.078 C 226.036 293.396,226.565 292.169,227.353 289.630 C 228.026 287.463,232.084 274.368,236.372 260.531 C 240.659 246.694,244.215 235.326,244.272 235.268 C 244.330 235.211,249.961 235.204,256.787 235.254 L 269.198 235.345 254.962 273.448 C 247.133 294.405,240.399 312.444,240.000 313.534 L 239.273 315.517 225.752 315.517 L 212.231 315.517 197.428 276.466 C 189.286 254.987,182.420 236.909,182.170 236.293 L 181.715 235.172 194.637 235.172 L 207.558 235.172 208.226 237.328" fill="#000000" fill-rule="evenodd"></path></g></svg>
<!--Icon taken from www.uxwing.com-->
